symbols/web/signal_cellular_alt_1_bar/materialsymbolsrounded/signal_cellular_alt_1_bar_wght600gradN25_48px.svg

<svg xmlns="http://www.w3.org/2000/svg" height="48" width="48"><path d="M12.45 39.75q-1.25 0-2.075-.875Q9.55 38 9.55 36.8v-6.35q0-1.2.85-2.05.85-.85 2.05-.85 1.2 0 2.05.85.85.85.85 2.05v6.35q0 1.2-.85 2.075-.85.875-2.05.875Z"/></svg>

<svg xmlns="http://www.w3.org/2000/svg" height="48" width="48"><path d="M12.45 39.75Q11.2 39.75 10.375 38.875Q9.55 38 9.55 36.8V30.45Q9.55 29.25 10.4 28.4Q11.25 27.55 12.45 27.55Q13.65 27.55 14.5 28.4Q15.35 29.25 15.35 30.45V36.8Q15.35 38 14.5 38.875Q13.65 39.75 12.45 39.75Z"/></svg>
